X:1
T: Good For the Tongue
T:Simplified
M: C|
K: A
"A"ABcd e2z2| "D"f2g2 "A"a2z2| "D"F2z2 "A"E2z2| "Bm"c2B2 "E"AGFE|
"A"ABcd e2z2| "D"f2g2 "A"a2z2| "D"F2z2 "A"E2AB|"E"c2B2 "A"A4:|
|:"A"e2z2 e2z2| "D"a2f2 "A"e2z2|"D"a2f2 "A"e2AB| "Bm"c2B2 "E"AGFE|
"A"e2z2 e2z2| "D"a2f2 "A"e2z2|"D"a2f2 "A"e2AB|"E"c2B2 "A"A4:|"D"a3fe2d2|"E7"c2B2"A"A4|]
W:                                                                                                                       Jeopardy ending if called for
